symbols/web/minor_crash/materialsymbolsoutlined/minor_crash_wght200gradN25fill1_24px.svg

<svg xmlns="http://www.w3.org/2000/svg" height="24" width="24"><path d="M8 6.2 5.775 3.975l.625-.65 2.25 2.25Zm8 0-.625-.625 2.225-2.25.65.65Zm-4.45-1.175V1.1h.925v3.925ZM4.6 22.85q-.2 0-.325-.125T4.15 22.4v-7.225L6.1 9.6q.075-.225.263-.338.187-.112.437-.112h10.475q.225 0 .388.112.162.113.237.338l1.95 5.575V22.4q0 .2-.125.325t-.325.125h-.175q-.2 0-.337-.125-.138-.125-.138-.325v-1.5H5.25v1.5q0 .2-.137.325-.138.125-.338.125Zm.85-8.6h13.1l-1.475-4.2H6.925Zm2 4.4q.45 0 .775-.325t.325-.775q0-.45-.325-.762-.325-.313-.775-.313t-.762.313q-.313.312-.313.787 0 .45.313.762.312.313.762.313Zm9.1 0q.45 0 .762-.325.313-.325.313-.775t-.313-.762q-.312-.313-.762-.313t-.775.313q-.325.312-.325.787 0 .45.325.762.325.313.775.313Z"/></svg>

<svg xmlns="http://www.w3.org/2000/svg" height="24" width="24"><path d="M8 6.2 5.775 3.975 6.4 3.325 8.65 5.575ZM16 6.2 15.375 5.575 17.6 3.325 18.25 3.975ZM11.55 5.025V1.1H12.475V5.025ZM4.6 22.85Q4.4 22.85 4.275 22.725Q4.15 22.6 4.15 22.4V15.175L6.1 9.6Q6.175 9.375 6.363 9.262Q6.55 9.15 6.8 9.15H17.275Q17.5 9.15 17.663 9.262Q17.825 9.375 17.9 9.6L19.85 15.175V22.4Q19.85 22.6 19.725 22.725Q19.6 22.85 19.4 22.85H19.225Q19.025 22.85 18.888 22.725Q18.75 22.6 18.75 22.4V20.9H5.25V22.4Q5.25 22.6 5.113 22.725Q4.975 22.85 4.775 22.85ZM5.45 14.25H18.55L17.075 10.05H6.925ZM7.45 18.65Q7.9 18.65 8.225 18.325Q8.55 18 8.55 17.55Q8.55 17.1 8.225 16.788Q7.9 16.475 7.45 16.475Q7 16.475 6.688 16.788Q6.375 17.1 6.375 17.575Q6.375 18.025 6.688 18.337Q7 18.65 7.45 18.65ZM16.55 18.65Q17 18.65 17.312 18.325Q17.625 18 17.625 17.55Q17.625 17.1 17.312 16.788Q17 16.475 16.55 16.475Q16.1 16.475 15.775 16.788Q15.45 17.1 15.45 17.575Q15.45 18.025 15.775 18.337Q16.1 18.65 16.55 18.65Z"/></svg>
